server/public/images/feature-earnings.svg

<?xml version="1.0" encoding="UTF-8"?>
<svg width="48px" height="48px" viewBox="0 0 48 48" version="1.1" xmlns="http://www.w3.org/2000/svg" xmlns:xlink="http://www.w3.org/1999/xlink">
    <!-- Generator: Sketch 53 (72520) - https://sketchapp.com -->
    <title>Earn</title>
    <desc>Created with Sketch.</desc>
    <g id="Page-1" stroke="none" stroke-width="1" fill="none" fill-rule="evenodd">
        <g id="Rocket-Rides-Icons" transform="translate(-256.000000, -96.000000)" fill="#13B57D">
            <g id="Earn" transform="translate(256.000000, 96.000000)">
                <path d="M35.9726916,19 L12.0130376,19 C12.0692164,21.1506419 12.3044147,23.1755114 12.6692959,25 L18.1260175,25 C18.3071606,25.7037903 18.6750316,26.332618 19.1736693,26.830522 C19.1565806,26.8865033 19.1406868,26.9430058 19.1260175,27 L13.1417506,27 C13.8764624,29.6705678 14.8978661,31.749013 16.0006906,32.9249181 C16.0002309,32.9498902 16,32.9749181 16,33 L16,34 C16,34.7032907 16.1815037,35.3641889 16.5002244,35.9384078 C7.26082175,35.1762883 0,27.436072 0,18 C0,8.0588745 8.0588745,0 18,0 C27.9411255,0 36,8.0588745 36,18 C36,18.3355571 35.990818,18.6689696 35.9726916,19 Z M10.6274749,25 C10.2780232,23.1390392 10.0636892,21.1182912 10.0121371,19 L2.03074198,19 C2.16278416,21.1412186 2.71596217,23.1684887 3.60846581,25 L10.6274749,25 Z M13.9095128,33.472356 C12.7351711,31.8972373 11.7552939,29.6645029 11.0702576,27 L4.7693596,27 C6.90890897,30.1392016 10.1364992,32.4775261 13.9095128,33.472356 Z M32.3915342,11 L25.3725251,11 C25.7219768,12.8609608 25.9363108,14.8817088 25.9878629,17 L33.969258,17 C33.8372158,14.8587814 33.2840378,12.8315113 32.3915342,11 Z M22.0904872,2.52764398 C23.2648289,4.10276267 24.2447061,6.33549705 24.9297424,9 L31.2306404,9 C29.091091,5.86079839 25.8635008,3.52247392 22.0904872,2.52764398 Z M2.03074198,17 L10.0121371,17 C10.0636892,14.8817088 10.2780232,12.8609608 10.6274749,11 L3.60846581,11 C2.71596217,12.8315113 2.16278416,14.8587814 2.03074198,17 Z M11.0702576,9 C11.7552939,6.33549705 12.7351711,4.10276267 13.9095128,2.52764398 C10.1364992,3.52247392 6.90890897,5.86079839 4.7693596,9 L11.0702576,9 Z M12.6692959,11 C12.3044147,12.8244886 12.0692164,14.8493581 12.0130376,17 L23.9869624,17 C23.9307836,14.8493581 23.6955853,12.8244886 23.3307041,11 L12.6692959,11 Z M18,2 C16.2060468,2 14.310907,4.75029075 13.1417506,9 L22.8582494,9 C21.689093,4.75029075 19.7939532,2 18,2 Z" id="Globe,-cropped" fill-rule="nonzero" opacity="0.400000006"></path>
                <path d="M30.2000362,42 C30.4176955,43.0722697 30.8069248,44.0822371 31.337822,45 L20,45 C19.4477153,45 19,44.5522847 19,44 L19,43 C19,42.4477153 19.4477153,42 20,42 L30.2000362,42 Z M30.4578023,37 C30.1603538,37.9470412 30,38.9547943 30,40 L22,40 C21.4477153,40 21,39.5522847 21,39 L21,38 C21,37.4477153 21.4477153,37 22,37 L30.4578023,37 Z M33.9990251,32 C32.9228096,32.8085814 32.015052,33.8292713 31.337822,35 L20,35 C19.4477153,35 19,34.5522847 19,34 L19,33 C19,32.4477153 19.4477153,32 20,32 L33.9990251,32 Z M23,27 L39,27 C39.5522847,27 40,27.4477153 40,28 L40,29 C40,29.5522847 39.5522847,30 39,30 L23,30 C22.4477153,30 22,29.5522847 22,29 L22,28 C22,27.4477153 22.4477153,27 23,27 Z M22,22 L38,22 C38.5522847,22 39,22.4477153 39,23 L39,24 C39,24.5522847 38.5522847,25 38,25 L22,25 C21.4477153,25 21,24.5522847 21,24 L21,23 C21,22.4477153 21.4477153,22 22,22 Z M40,48 C35.581722,48 32,44.418278 32,40 C32,35.581722 35.581722,32 40,32 C44.418278,32 48,35.581722 48,40 C48,44.418278 44.418278,48 40,48 Z" id="Coins,-with-border"></path>
            </g>
        </g>
    </g>
</svg>

<svg width="48" height="48" xmlns="http://www.w3.org/2000/svg"><g fill="#13B57D" fill-rule="evenodd"><path d="M35.973 19h-23.96a35.49 35.49 0 0 0 .656 6h5.457a3.995 3.995 0 0 0 1.048 1.83 3.969 3.969 0 0 0-.048.17h-5.984c.734 2.67 1.756 4.749 2.859 5.925L16 33v1c0 .703.182 1.364.5 1.938C7.26 35.176 0 27.436 0 18 0 8.059 8.059 0 18 0s18 8.059 18 18c0 .336-.01.669-.027 1zm-25.346 6a37.62 37.62 0 0 1-.615-6H2.031a15.907 15.907 0 0 0 1.577 6h7.02zm3.283 8.472c-1.175-1.575-2.155-3.807-2.84-6.472h-6.3a16.025 16.025 0 0 0 9.14 6.472zM32.392 11h-7.02a37.62 37.62 0 0 1 .616 6h7.981a15.907 15.907 0 0 0-1.577-6zM22.09 2.528C23.265 4.103 24.245 6.335 24.93 9h6.3a16.025 16.025 0 0 0-9.14-6.472zM2.03 17h7.982a37.62 37.62 0 0 1 .615-6H3.608a15.907 15.907 0 0 0-1.577 6zm9.04-8c.685-2.665 1.665-4.897 2.84-6.472C10.136 3.522 6.909 5.86 4.77 9h6.3zm1.6 2a35.49 35.49 0 0 0-.657 6h11.974a35.49 35.49 0 0 0-.656-6H12.669zM18 2c-1.794 0-3.69 2.75-4.858 7h9.716C21.69 4.75 19.794 2 18 2z" fill-rule="nonzero" opacity=".4"/><path d="M30.2 42a9.935 9.935 0 0 0 1.138 3H20a1 1 0 0 1-1-1v-1a1 1 0 0 1 1-1h10.2zm.258-5A9.996 9.996 0 0 0 30 40h-8a1 1 0 0 1-1-1v-1a1 1 0 0 1 1-1h8.458zm3.541-5a10.05 10.05 0 0 0-2.661 3H20a1 1 0 0 1-1-1v-1a1 1 0 0 1 1-1h13.999zM23 27h16a1 1 0 0 1 1 1v1a1 1 0 0 1-1 1H23a1 1 0 0 1-1-1v-1a1 1 0 0 1 1-1zm-1-5h16a1 1 0 0 1 1 1v1a1 1 0 0 1-1 1H22a1 1 0 0 1-1-1v-1a1 1 0 0 1 1-1zm18 26a8 8 0 1 1 0-16 8 8 0 0 1 0 16z"/></g></svg>
